X:1
T:Title
%%score { ( 1 3 ) | ( 2 4 ) }
L:1/8
M:4/4
K:Db
V:1 treble nm="Grand Piano"
V:3 treble 
V:2 bass 
V:4 bass 
V:1
 z4 z2[Q:1/4=84] DE | FF_F=F [FA][FA][_F=G][=FA] | [Fd][Fd][Gc][GB] [FA]2 [FB][FA] | %3
 GGFG [Gc][GB][FA][EG] | [DF][FA][E=G][GB] c2 Bc | [Fd][Fd][Gc][GB] [FA][FA][_F=G][=FA] | %6
 [DFB][DFB][DFA][B,=DF] [B,EG]2 [B,_D=G][DA] | [DGB][EAc][DAd]e f[Ad][Ac]B |[M:3/4] Ad dc [Fd]2 | %9
[M:1/4] [FA][Fd] |[M:4/4] [Gd]2 [Gc]2 c2 G2 | d2 c4 [CGB][CGc] | [DFc]2 [DFB]2 [DFB]2 [A,DF]2 | %13
[M:3/4] B2 z2 z2 |[M:1/4] [DFB][Fc] |[M:4/4] [Fd]2 [Fc]2 [FB]2 F2 | G2 =GA [GB][Ac]de | %17
 f2 d-[Gd] d2 [Gc]2 |[M:3/4] [Fd]6 |] %19
V:2
 z4 z2 [D,F,][D,G,D] | [D,A,D][D,A,D][D,=G,D][D,A,D] [D,D][D,D][D,D][D,D] | %2
 [D,A,][D,A,][D,B,][D,C] [D,D]2 [D,D][D,D] | [A,CE][A,E][A,=D][A,E] [A,,A,][A,,A,][A,,A,][A,,A,] | %4
 [D,A,][D,D][E,D][E,E][K:treble] [A,EA]2 [A,CG][A,G] | %5
 [D,A,][D,A,][D,B,][D,C] [D,D][D,D][D,D][D,D] | B,,B,,B,,B,, E,2 _F,=F, | %7
 G,E,F,[K:treble][A,CA] [DA][K:bass][F,D][G,D][K:treble][G,DG] | %8
[M:3/4] [A,DF][A,DF] [A,EG][A,EG][K:bass] [D,D]2 |[M:1/4] [D,D][D,A,] | %10
[M:4/4] [E,A,]2 [E,A,]2[K:treble] [A,EG]2 [A,CE]2 | [A,EG]2 [A,EG]4[K:bass] A,,A,, | %12
 D,2 D,2 D,2 D,2 |[M:3/4] z2 A4 |[M:1/4] D,[C,=A,] |[M:4/4] [B,,B,]2 [C,=A,]2 [D,B,]2 [=D,B,]2 | %16
 [E,B,E]2 [_F,B,D][=F,D] [G,D][E,E][F,D][K:treble][A,C] | %17
 [DA]2[K:bass] [F,D][G,B,] [A,F]2 [A,,A,]2 |[M:3/4] [D,A,]6 |] %19
V:3
 x8 | x8 | x8 | x8 | x8 | x8 | x8 | x8 |[M:3/4] x6 |[M:1/4] x2 |[M:4/4] x8 | x8 | x8 | %13
[M:3/4] [DF]6 |[M:1/4] x2 |[M:4/4] x8 | z4 z2 A2 | z2 .A2 z4 |[M:3/4] x6 |] %19
V:4
 x8 | x8 | x8 | x8 | x4[K:treble] x4 | x8 | x8 | x3[K:treble] x2[K:bass] x2[K:treble] x | %8
[M:3/4] x4[K:bass] x2 |[M:1/4] x2 |[M:4/4] x4[K:treble] x4 | x6[K:bass] x2 | x8 |[M:3/4] D,6 | %14
[M:1/4] x2 |[M:4/4] x8 | x7[K:treble] x | x2[K:bass] x6 |[M:3/4] x6 |] %19

